X: 1
T: BARNDANCES: Hills of Tara Set
T: Hills of Tara / If There Weren't Any Men
C: C: Trad.; S: Various
C: Set Leaders: Mars, Tania
Z: [Unedited]; Joseph Chordmichael / glauber at The Session
N: https://thesession.org/members/26966/sets/94259
R: Barndance
M: 4/4
L: 1/8
Q: 1/2=86
K: Gmaj
|:Bc|d2G2 GBAB|c2E2 A2AG|FGAB cBcd|e2d2 ~B3c|
d2G2 GBAB|c2E2 A2AG|FGAB cADF|A2G2 G2:||
(3Bcd|:g2ge ~f3d|efec A2AG|FGAB cBcd|e2d2 B2(3Bcd|
g2ge ~f3d|efec A2AG|FGAB cADF|A2G2 G2:||
T: If There Weren't Any Women / If There Weren't Any Women in the World
K: Gmaj
Bc|:de dB GA BG|EA GE D3 A|BG Bd ge dB|A2 AG A2 Bc|
de dB GA BG|EA GE D3 A|B d2 B AG AB|1 G2 GF G2 Bc:|2 G2 GF GGBd||
|:e2 ef g2 gf|ed dB d2 (3Bcd|ed Bd ge dB|A2 AG A2 Bc|
de dB GA BG|EA GE D3 A|B d2 B AG AB|1 G2 GF GABd:|2 G2 GF G2 Bc||

